src/assets/icons/filters/categories/baby_car_stroke.svg

<svg width="48" height="48" viewBox="0 0 48 48" fill="none" xmlns="http://www.w3.org/2000/svg">
<path opacity="0.4" fill-rule="evenodd" clip-rule="evenodd" d="M27.6376 2.69417C30.0995 2.69417 32.4298 3.25933 34.5247 4.24255L26.1558 16.9965V4.17597C26.1566 3.78308 26.3129 3.4065 26.5906 3.12854C26.8682 2.85058 27.2447 2.69385 27.6376 2.69263V2.69417ZM43.9373 18.9908C43.9373 19.8084 43.2715 20.4726 42.4555 20.4726H30.9341L43.2436 14.2993C43.7029 15.8208 43.9366 17.4015 43.9373 18.9908Z" fill="black"/>
<path fill-rule="evenodd" clip-rule="evenodd" d="M44.9992 28.5242C44.9964 30.9039 44.0498 33.1853 42.3671 34.868C40.6844 36.5506 38.403 37.4972 36.0233 37.5001H16.472C12.2898 37.5001 8.60312 34.535 7.71126 30.4519C7.48829 29.43 6.74507 28.5567 5.72315 28.1201C3.68393 27.2468 2.61555 25.1054 3.12187 22.9113C3.35992 21.9295 3.92372 21.0575 4.72124 20.4374C5.51876 19.8173 6.50291 19.4859 7.51307 19.4971C9.40828 19.4971 10.8483 20.6693 11.5094 22.0102C12.1133 23.238 13.3055 23.9998 14.6217 23.9998H42.0233C43.6645 23.9998 44.9992 25.3361 44.9992 26.9774V28.5242ZM35.9985 44.9989C35.6153 44.9776 35.2547 44.8103 34.9909 44.5314C34.7271 44.2525 34.5801 43.8832 34.5801 43.4993C34.5801 43.1154 34.7271 42.7461 34.9909 42.4672C35.2547 42.1883 35.6153 42.021 35.9985 41.9997C36.3847 42.0172 36.7492 42.183 37.0162 42.4624C37.2833 42.7419 37.4323 43.1135 37.4323 43.5001C37.4323 43.8866 37.2833 44.2583 37.0162 44.5377C36.7492 44.8172 36.3847 44.9829 35.9985 45.0004V44.9989ZM16.4967 44.9989C16.1135 44.9776 15.7529 44.8103 15.4891 44.5314C15.2253 44.2525 15.0783 43.8832 15.0783 43.4993C15.0783 43.1154 15.2253 42.7461 15.4891 42.4672C15.7529 42.1883 16.1135 42.021 16.4967 41.9997C16.8829 42.0172 17.2474 42.183 17.5144 42.4624C17.7815 42.7419 17.9305 43.1135 17.9305 43.5001C17.9305 43.8866 17.7815 44.2583 17.5144 44.5377C17.2474 44.8172 16.8829 44.9829 16.4967 45.0004V44.9989ZM28.4967 2.9992C30.9895 2.9992 33.3493 3.5721 35.4705 4.56771L26.9978 17.4812V4.49958C26.9982 4.10178 27.1564 3.72039 27.4377 3.43911C27.719 3.15782 28.1004 2.99961 28.4982 2.9992H28.4967ZM43.1598 11.9628L29.8128 18.6579L38.0656 6.08047C40.2051 7.61059 41.951 9.62657 43.1598 11.9628V11.9628ZM44.9992 19.5002C44.9984 19.8978 44.84 20.2788 44.5588 20.5597C44.2776 20.8407 43.8964 20.9987 43.4989 20.9991H31.835L44.2963 14.7498C44.7484 16.2548 44.9992 17.8481 44.9992 19.5002V19.5002ZM48 19.5002C48 20.8783 47.3652 22.0969 46.3866 22.9222C47.4194 24.0202 47.9961 25.4699 48 26.9774V28.5242C48 34.1185 44.1384 38.8147 38.942 40.1246C39.4284 40.5427 39.8192 41.0605 40.0879 41.6429C40.3567 42.2253 40.4971 42.8587 40.4997 43.5001C40.498 44.6932 40.0232 45.837 39.1794 46.6805C38.3356 47.524 37.1917 47.9984 35.9985 47.9997C34.8054 47.9984 33.6615 47.524 32.8177 46.6805C31.9738 45.837 31.499 44.6932 31.4974 43.5001C31.4974 42.3434 31.9495 41.2983 32.668 40.4993H19.8273C20.5457 41.2983 20.9963 42.3419 20.9963 43.5001C20.9947 44.6929 20.5201 45.8365 19.6766 46.6799C18.8331 47.5234 17.6896 47.998 16.4967 47.9997C15.3036 47.9984 14.1597 47.524 13.3159 46.6805C12.4721 45.837 11.9973 44.6932 11.9956 43.5001C11.9956 42.1514 12.6041 40.953 13.5486 40.1277C9.2457 39.0268 5.75721 35.5646 4.78018 31.0914C4.76625 31.031 4.67954 30.9366 4.54328 30.8793C1.20034 29.447 -0.628293 25.813 0.196992 22.2393C0.511938 20.8938 1.19623 19.6629 2.17282 18.6852C3.14941 17.7075 4.37953 17.0219 5.72469 16.7054C9.16054 15.9096 12.6521 17.5446 14.2005 20.6848C14.2779 20.8365 14.4281 20.9991 14.6232 20.9991H23.9971V4.49958C23.9987 3.30645 24.4735 2.16268 25.3173 1.31916C26.1611 0.475636 27.3051 0.0012289 28.4982 0C39.2517 0 48 8.74832 48 19.5002ZM6.43075 22.9361C6.15715 23.2234 6.0018 23.6032 5.99566 23.9998C5.99804 24.3974 6.15328 24.7788 6.42921 25.0651C6.71566 25.3361 7.10585 25.5002 7.49449 25.5002C7.88468 25.5002 8.27487 25.3361 8.55977 25.0667C8.83663 24.7803 8.99246 24.3982 8.99486 23.9998C8.98899 23.6034 8.83423 23.2237 8.56132 22.9361C8.0039 22.3802 6.98507 22.3802 6.43075 22.9361V22.9361Z" fill="black"/>
</svg>

<svg width="48" height="48" viewBox="0 0 48 48" fill="none" xmlns="http://www.w3.org/2000/svg"><path opacity=".4" fill-rule="evenodd" clip-rule="evenodd" d="M27.638 2.694c2.461 0 4.792.565 6.887 1.549l-8.37 12.754V4.176a1.486 1.486 0 011.483-1.483v.001zm16.3 16.297c0 .817-.666 1.482-1.483 1.482h-11.52l12.309-6.174c.459 1.522.693 3.102.693 4.692z" fill="#000"/><path fill-rule="evenodd" clip-rule="evenodd" d="M45 28.524a8.986 8.986 0 01-8.977 8.976H16.472c-4.182 0-7.869-2.965-8.76-7.048-.224-1.022-.967-1.895-1.989-2.332-2.04-.873-3.107-3.015-2.601-5.209a4.467 4.467 0 014.391-3.414c1.895 0 3.335 1.172 3.996 2.513.604 1.228 1.796 1.99 3.113 1.99h27.401A2.98 2.98 0 0145 26.977v1.547zM35.997 45a1.502 1.502 0 010-3 1.502 1.502 0 010 3.001V45zm-19.501 0a1.502 1.502 0 010-3 1.502 1.502 0 010 3.001V45zm12-42c2.492 0 4.852.573 6.974 1.569L26.998 17.48V4.5a1.502 1.502 0 011.5-1.5h-.001zm14.663 8.964l-13.347 6.695L38.066 6.08a16.624 16.624 0 015.094 5.883zM45 19.5a1.502 1.502 0 01-1.501 1.5H31.835l12.461-6.25c.452 1.505.703 3.098.703 4.75zm3 0c0 1.378-.635 2.597-1.613 3.422A5.941 5.941 0 0148 26.977v1.547c0 5.594-3.862 10.29-9.058 11.6A4.473 4.473 0 0140.5 43.5a4.506 4.506 0 01-4.502 4.5 4.506 4.506 0 01-4.5-4.5c0-1.157.451-2.202 1.17-3h-12.84a4.471 4.471 0 011.168 3 4.505 4.505 0 01-4.5 4.5 4.506 4.506 0 01-4.5-4.5c0-1.349.608-2.547 1.553-3.372-4.303-1.101-7.792-4.563-8.769-9.037-.014-.06-.1-.154-.237-.212C1.2 29.447-.628 25.813.197 22.24a7.423 7.423 0 015.528-5.534c3.436-.795 6.927.84 8.476 3.98.077.152.227.314.422.314h9.374V4.5A4.506 4.506 0 0128.498 0C39.252 0 48 8.748 48 19.5zM6.43 22.936A1.578 1.578 0 005.997 24c.002.397.157.779.433 1.065.287.271.677.435 1.065.435.39 0 .78-.164 1.066-.433.277-.287.432-.669.435-1.067a1.58 1.58 0 00-.434-1.064c-.557-.556-1.576-.556-2.13 0z" fill="#000"/></svg>
